X:363
T: ES GRAST EIN MAEGDLEIN HUEBSCH UND FEIN
N: E0204A
O: Europa, Mitteleuropa, Deutschland, Vormark, Perleberg, Klein Welle
R: erzaehlendes Volks - Lied, Todes - Ahnung; betrogene Liebe
M: 2/4
L: 1/16
K: F
FA | c4c2d2 | c6B2 | A4c2A2 | G6
d2 | c2A2B2G2 | F2A2A2
F2 | G2A2B2G2 | A6

